alura/assets/api/cursos/python-criando-graficos-comparacao.svg

<svg width="50" height="50" viewBox="0 0 50 50" fill="none" xmlns="http://www.w3.org/2000/svg">
<path d="M27.6 19L35.5 21.4L28.8 26.2L28.9 34.4L22.3 29.5L14.5 32.0999L17.2 24.3L12.3 17.7L20.5 17.9L25.2 11.2L27.6 19Z" fill="#319327"/>
<path d="M44.7 12.9001L39.1 9.3001L31.4 4.9001L25.4 2.1001C22.2 2.1001 4 11.0001 4 14.2001L3.5 22.0001L4 37.1001L15.5 44.7001L46.5 33.7001C47.2 33.3001 45.7 15.0001 44.7 13.0001V12.9001Z" fill="#5ABA52"/>
<path d="M30 46.6L27.8 47.9C26.1 48.9 24 48.9 22.3 47.9L6.7 38.9C5 37.9 4 36.1 4 34.2V16.2C4 14.2 5 12.4 6.7 11.5L22.3 2.5C24 1.5 26.1 1.5 27.8 2.5L43.4 11.5C45.1 12.5 46.1 14.3 46.1 16.2V34.2C46.1 36.2 45.1 38 43.4 38.9L40.9 40.3" stroke="#444444" stroke-width="2.5" stroke-linecap="round" stroke-linejoin="round"/>
<path fill-rule="evenodd" clip-rule="evenodd" d="M38.8001 20.5001C38.9001 20.7001 38.8001 20.9001 38.7001 21.0001C38.5001 21.1001 38.3001 21.0001 38.2001 20.9001L33.7001 13.2001H33.6001C33.1001 13.3001 32.6001 13.2001 32.1001 13.0001C31.6001 12.7001 31.3001 12.3001 31.2001 11.8001C31.1001 11.3001 31.2001 10.8001 31.4001 10.4001C31.7001 9.90007 32.1001 9.60007 32.6001 9.50007C33.1001 9.40007 33.6001 9.50007 34.1001 9.70007C34.6001 10.0001 34.9001 10.4001 35.0001 10.9001C35.1001 11.4001 35.0001 11.9001 34.8001 12.4001C34.7001 12.6001 34.6001 12.8001 34.4001 12.9001L38.9001 20.6001L38.8001 20.5001ZM10.3001 23.7001C10.6001 24.0001 10.8001 24.3001 10.9001 24.7001C11.0001 25.2001 10.9001 25.7001 10.7001 26.2001C10.4001 26.7001 10.0001 27.0001 9.50012 27.1001C9.00012 27.2001 8.50012 27.1001 8.10012 26.9001C7.70012 26.6001 7.40012 26.2001 7.20012 25.7001C7.10012 25.2001 7.20012 24.7001 7.40012 24.3001C7.70012 23.9001 8.10012 23.6001 8.60012 23.4001H9.70012L14.2001 15.7001C14.3001 15.5001 14.5001 15.5001 14.7001 15.6001C14.9001 15.7001 14.9001 15.9001 14.8001 16.1001L10.3001 23.8001V23.7001ZM16.6001 9.40007C17.1001 9.30007 17.6001 9.40007 18.0001 9.60007C18.5001 9.90007 18.8001 10.3001 18.9001 10.8001V10.9001H27.8001C28.0001 10.9001 28.2001 11.1001 28.2001 11.3001C28.2001 11.5001 28.0001 11.7001 27.8001 11.7001H18.9001C18.9001 11.9001 18.8001 12.1001 18.7001 12.3001C18.4001 12.8001 18.0001 13.1001 17.5001 13.2001C17.0001 13.3001 16.5001 13.2001 16.0001 13.0001C15.1001 12.5001 14.8001 11.3001 15.3001 10.4001C15.6001 9.90007 16.0001 9.60007 16.5001 9.50007L16.6001 9.40007ZM42.0001 23.5001C42.4001 23.8001 42.7001 24.2001 42.9001 24.7001C43.0001 25.2001 42.9001 25.7001 42.7001 26.1001C42.4001 26.6001 42.0001 26.9001 41.5001 27.0001H40.4001L35.9001 34.7001C35.8001 34.9001 35.6001 34.9001 35.4001 34.8001C35.2001 34.7001 35.2001 34.5001 35.3001 34.3001L39.8001 26.6001C39.1001 26.0001 38.9001 25.0001 39.4001 24.2001C39.7001 23.8001 40.1001 23.5001 40.6001 23.3001C41.1001 23.2001 41.6001 23.3001 42.0001 23.5001ZM32.6001 37.2001C33.1001 37.1001 33.6001 37.2001 34.1001 37.4001C34.6001 37.7001 34.9001 38.1001 35.0001 38.6001C35.1001 39.1001 35.0001 39.6001 34.8001 40.0001C34.5001 40.5001 34.1001 40.8001 33.6001 40.9001C33.1001 41.0001 32.6001 40.9001 32.2001 40.7001C31.7001 40.4001 31.4001 40.0001 31.3001 39.5001V39.4001H22.4001C22.2001 39.4001 22.0001 39.2001 22.0001 39.0001C22.0001 38.8001 22.2001 38.6001 22.4001 38.6001H31.3001C31.3001 38.4001 31.4001 38.2001 31.5001 38.0001C31.8001 37.5001 32.2001 37.2001 32.7001 37.1001L32.6001 37.2001ZM16.6001 37.2001C17.1001 37.1001 17.6001 37.2001 18.0001 37.4001C18.4001 37.7001 18.7001 38.1001 18.9001 38.6001C19.0001 39.1001 18.9001 39.6001 18.7001 40.0001C18.4001 40.4001 18.0001 40.7001 17.5001 40.9001C17.0001 41.0001 16.5001 40.9001 16.0001 40.7001C15.5001 40.4001 15.2001 40.0001 15.1001 39.5001C15.0001 39.0001 15.1001 38.5001 15.3001 38.0001C15.4001 37.8001 15.5001 37.6001 15.7001 37.5001L11.2001 29.8001C11.1001 29.6001 11.2001 29.4001 11.3001 29.3001C11.5001 29.2001 11.7001 29.3001 11.8001 29.4001L16.3001 37.1001H16.4001L16.6001 37.2001Z" stroke="#444444" stroke-width="0.5" stroke-linecap="round" stroke-linejoin="round"/>
<path fill-rule="evenodd" clip-rule="evenodd" d="M25.1 21.6001C26.1 21.6001 27 22.0001 27.6 22.6001C28.2 23.2001 28.6 24.1001 28.6 25.1001C28.6 26.1001 28.2 27.0001 27.6 27.6001C27 28.2001 26.1 28.6001 25.1 28.6001C24.1 28.6001 23.2 28.2001 22.6 27.6001C22 27.0001 21.6 26.1001 21.6 25.1001C21.6 24.1001 22 23.2001 22.6 22.6001C23.2 22.0001 24.1 21.6001 25.1 21.6001Z" stroke="#444444" stroke-linecap="round" stroke-linejoin="round"/>
<path fill-rule="evenodd" clip-rule="evenodd" d="M24.1 16C23.9 16 23.7 16 23.6 16.2C23.5 16.3 23.4 16.5 23.4 16.7V18.2H23.3C23 18.2 22.7 18.4 22.4 18.5C22.1 18.6 21.8 18.8 21.5 18.9L20.4 18C20.2 17.9 20.1 17.8 19.9 17.8C19.7 17.8 19.5 17.8 19.4 18L18.1 19.3C18 19.4 17.9 19.6 17.9 19.8C17.9 20 17.9 20.2 18.1 20.3L19 21.4C18.8 21.7 18.7 22 18.6 22.3L18.3 23.2H16.8C16.6 23.4 16.4 23.4 16.3 23.6C16.2 23.7 16.1 23.9 16.1 24.1V26C16.1 26.2 16.1 26.4 16.3 26.5C16.4 26.6 16.6 26.7 16.8 26.7H18.3V26.8C18.3 27.1 18.5 27.4 18.6 27.7C18.7 28 18.9 28.3 19 28.6L18.1 29.7C18 29.9 17.9 30 17.9 30.2C17.9 30.4 17.9 30.6 18.1 30.7L19.4 32C19.5 32.1 19.7 32.2 19.9 32.2C20.1 32.2 20.3 32.2 20.4 32L21.5 31.1C21.8 31.3 22.1 31.4 22.4 31.5L23.3 31.8V33.3C23.5 33.5 23.5 33.7 23.7 33.8C23.8 33.9 24 34 24.2 34H26.1C26.3 34 26.5 34 26.6 33.8C26.7 33.7 26.8 33.5 26.8 33.3V31.8H26.9C27.2 31.8 27.5 31.6 27.8 31.5C28.1 31.4 28.4 31.2 28.7 31.1L29.8 32C30 32.1 30.1 32.2 30.3 32.2C30.5 32.2 30.7 32.2 30.8 32L32.1 30.7C32.2 30.6 32.3 30.4 32.3 30.2C32.3 30 32.3 29.8 32.1 29.7L31.2 28.6C31.4 28.3 31.5 28 31.6 27.7L31.9 26.8H33.4C33.6 26.6 33.8 26.6 33.9 26.4C34 26.3 34.1 26.1 34.1 25.9V24C34.1 23.8 34.1 23.6 33.9 23.5C33.8 23.4 33.6 23.3 33.4 23.3H31.9V23.2C31.9 22.9 31.7 22.6 31.6 22.3C31.5 22 31.3 21.7 31.2 21.4L32.1 20.3C32.2 20.1 32.3 20 32.3 19.8C32.3 19.6 32.3 19.4 32.1 19.3L30.8 18C30.7 17.9 30.5 17.8 30.3 17.8C30.1 17.8 29.9 17.8 29.8 18L28.7 18.9C28.4 18.7 28.1 18.6 27.8 18.5L26.9 18.2V16.7C26.7 16.5 26.7 16.3 26.5 16.2C26.4 16.1 26.2 16 26 16H24.1Z" stroke="#444444" stroke-linecap="round" stroke-linejoin="round"/>
<path d="M2 23.8502C2 23.36 2.3553 22.9421 2.83908 22.8632L46.8391 15.6893C47.4476 15.5901 48 16.0597 48 16.6762V26.1498C48 26.64 47.6447 27.0579 47.1609 27.1368L3.16092 34.3107C2.55244 34.4099 2 33.9403 2 33.3238V23.8502Z" fill="#9B12EF"/>
<path d="M15.1574 30.1219L14.1078 22.9253L16.8627 22.5235C17.3828 22.4476 17.827 22.4666 18.1953 22.5804C18.5656 22.6914 18.8567 22.8751 19.0687 23.1312C19.2831 23.3871 19.4162 23.693 19.4681 24.0491C19.5109 24.342 19.4912 24.6008 19.4091 24.8257C19.3268 25.0483 19.2001 25.2378 19.0291 25.3943C18.8582 25.5508 18.6597 25.6743 18.4336 25.7647L18.4438 25.835C18.7012 25.8118 18.9575 25.8546 19.2126 25.9633C19.4697 26.0693 19.692 26.2403 19.8795 26.4761C20.067 26.7119 20.1874 27.0126 20.2407 27.378C20.2951 27.7505 20.2537 28.0986 20.1167 28.4225C19.9794 28.744 19.7416 29.0167 19.4035 29.2406C19.0653 29.4646 18.621 29.6167 18.0704 29.697L15.1574 30.1219ZM16.3022 28.8424L17.7042 28.6379C18.1775 28.5689 18.5052 28.429 18.6873 28.2182C18.8715 28.0048 18.9428 27.7551 18.9011 27.4693C18.87 27.2561 18.7893 27.0717 18.6589 26.9161C18.5282 26.7581 18.3585 26.6441 18.1497 26.5741C17.9406 26.5017 17.7013 26.4851 17.4319 26.5244L15.9947 26.734L16.3022 28.8424ZM15.8578 25.7958L17.1475 25.6077C17.3724 25.5749 17.569 25.5044 17.7375 25.3961C17.9055 25.2854 18.03 25.1465 18.1109 24.9792C18.1938 24.8092 18.2198 24.6188 18.1891 24.4079C18.1484 24.1292 18.0165 23.9139 17.7934 23.7622C17.5727 23.6102 17.2702 23.5622 16.886 23.6182L15.5683 23.8104L15.8578 25.7958ZM24.0095 28.9385C23.4683 29.0175 22.9846 28.9732 22.5582 28.8057C22.1338 28.6355 21.786 28.3585 21.5147 27.9746C21.243 27.5883 21.066 27.1129 20.9837 26.5483C20.9027 25.9931 20.9371 25.4905 21.0868 25.0404C21.2385 24.5876 21.4881 24.2163 21.8358 23.9263C22.1832 23.634 22.6145 23.4503 23.1299 23.3751C23.4626 23.3266 23.7843 23.3347 24.0952 23.3994C24.4081 23.4615 24.6944 23.5872 24.9541 23.7766C25.2161 23.9657 25.4379 24.2228 25.6193 24.548C25.8003 24.8709 25.9254 25.269 25.9944 25.7422L26.0513 26.1323L21.6272 26.7775L21.5022 25.9201L24.7069 25.4527C24.669 25.2094 24.5847 25.0004 24.454 24.8257C24.3229 24.6486 24.1568 24.5185 23.9556 24.4354C23.7568 24.3519 23.5356 24.328 23.292 24.3635C23.032 24.4014 22.8128 24.498 22.6345 24.6532C22.4558 24.8061 22.3263 24.9924 22.2459 25.2123C22.1675 25.4295 22.1447 25.6589 22.1776 25.9005L22.2867 26.649C22.3325 26.9629 22.4292 27.2239 22.5768 27.4321C22.724 27.6379 22.9094 27.7855 23.133 27.8749C23.3563 27.962 23.6061 27.9854 23.8825 27.945C24.0676 27.918 24.2313 27.8678 24.3737 27.7944C24.5158 27.7187 24.6344 27.6213 24.7295 27.5021C24.8245 27.383 24.8891 27.2432 24.9231 27.0827L26.1303 27.043C26.1011 27.3679 25.9982 27.6628 25.8215 27.9278C25.6468 28.1901 25.4061 28.4095 25.0992 28.5858C24.7921 28.7598 24.4288 28.8774 24.0095 28.9385ZM29.3783 22.5356L29.5218 23.5195L26.419 23.9721L26.2755 22.9881L29.3783 22.5356ZM26.8529 21.5833L28.125 21.3978L28.864 26.4649C28.8889 26.6359 28.9338 26.7633 28.9987 26.8472C29.0656 26.9284 29.1447 26.979 29.2362 26.9992C29.3276 27.0193 29.4261 27.0217 29.5315 27.0063C29.6112 26.9947 29.6829 26.9783 29.7468 26.957C29.813 26.9354 29.863 26.9173 29.8968 26.9028L30.2562 27.866C30.1917 27.8994 30.0982 27.9393 29.9758 27.9859C29.8558 28.0321 29.7059 28.0707 29.5262 28.1017C29.2089 28.1575 28.915 28.1513 28.6442 28.0832C28.3732 28.0126 28.1463 27.8759 27.9636 27.6728C27.7832 27.4695 27.6695 27.1989 27.6227 26.8613L26.8529 21.5833ZM32.7984 27.6603C32.4564 27.7102 32.1394 27.6942 31.8476 27.6124C31.5577 27.5279 31.3156 27.3766 31.1211 27.1585C30.9289 26.9401 30.8071 26.654 30.7555 26.3003C30.711 25.9958 30.7305 25.7357 30.8139 25.5202C30.8974 25.3047 31.0276 25.123 31.2046 24.9752C31.3816 24.8273 31.5875 24.7052 31.8222 24.6088C32.059 24.5096 32.3065 24.4269 32.5648 24.3605C32.8762 24.2816 33.1285 24.2149 33.3215 24.1604C33.5142 24.1036 33.651 24.0406 33.7318 23.9714C33.8146 23.8995 33.8471 23.8027 33.8294 23.6808L33.8263 23.6598C33.7877 23.395 33.6793 23.2015 33.5012 23.0791C33.323 22.9568 33.0864 22.9171 32.7912 22.9602C32.4796 23.0056 32.2424 23.1096 32.0795 23.2721C31.9189 23.4343 31.8205 23.6126 31.7842 23.8068L30.5719 23.8114C30.6178 23.4698 30.7324 23.1731 30.9158 22.9215C31.0989 22.6675 31.3382 22.4627 31.6337 22.3072C31.9289 22.1493 32.265 22.0429 32.6422 21.9878C32.9022 21.9499 33.1655 21.9426 33.4321 21.966C33.6987 21.9893 33.9488 22.0557 34.1825 22.1651C34.4158 22.2723 34.6144 22.4359 34.778 22.6561C34.9441 22.8759 35.0532 23.165 35.1055 23.5234L35.6323 27.1358L34.4095 27.3141L34.3013 26.5727L34.2592 26.5788C34.2037 26.74 34.1153 26.8965 33.9939 27.0482C33.8745 27.1972 33.7151 27.3269 33.5159 27.4373C33.3187 27.545 33.0795 27.6193 32.7984 27.6603ZM32.9924 26.6775C33.2477 26.6402 33.4618 26.5576 33.6345 26.4295C33.8069 26.2991 33.9311 26.1422 34.0073 25.9588C34.0857 25.7751 34.1105 25.5837 34.0814 25.3846L33.9887 24.7486C33.9536 24.7872 33.8901 24.8275 33.7982 24.8697C33.7086 24.9114 33.6067 24.9514 33.4927 24.9896C33.3786 25.0277 33.2654 25.0634 33.153 25.0965C33.0406 25.1297 32.9431 25.1582 32.8605 25.1823C32.6745 25.2357 32.5108 25.3026 32.3694 25.3831C32.228 25.4635 32.1217 25.5628 32.0504 25.6808C31.9787 25.7965 31.9548 25.9364 31.9788 26.1004C32.0129 26.3346 32.1242 26.499 32.3127 26.5936C32.5011 26.6881 32.7277 26.7161 32.9924 26.6775Z" fill="white"/>
</svg>

<svg xmlns="http://www.w3.org/2000/svg" fill="none" viewBox="0 0 50 50"><path fill="#319327" d="M27.6 19l7.9 2.4-6.7 4.8.1 8.2-6.6-4.9-7.8 2.6 2.7-7.8-4.9-6.6 8.2.2 4.7-6.7 2.4 7.8z"/><path fill="#5ABA52" d="M44.7 12.9l-5.6-3.6-7.7-4.4-6-2.8C22.2 2.1 4 11 4 14.2L3.5 22 4 37.1l11.5 7.6 31-11c.7-.4-.8-18.7-1.8-20.7v-.1z"/><path stroke="#444" stroke-linecap="round" stroke-linejoin="round" stroke-width="2.5" d="M30 46.6l-2.2 1.3c-1.7 1-3.8 1-5.5 0l-15.6-9C5 37.9 4 36.1 4 34.2v-18c0-2 1-3.8 2.7-4.7l15.6-9c1.7-1 3.8-1 5.5 0l15.6 9c1.7 1 2.7 2.8 2.7 4.7v18c0 2-1 3.8-2.7 4.7l-2.5 1.4"/><path stroke="#444" stroke-linecap="round" stroke-linejoin="round" stroke-width=".5" d="M38.8 20.5c.1.2 0 .4-.1.5-.2.1-.4 0-.5-.1l-4.5-7.7h-.1c-.5.1-1 0-1.5-.2-.5-.3-.8-.7-.9-1.2-.1-.5 0-1 .2-1.4.3-.5.7-.8 1.2-.9.5-.1 1 0 1.5.2.5.3.8.7.9 1.2.1.5 0 1-.2 1.5-.1.2-.2.4-.4.5l4.5 7.7-.1-.1zm-28.5 3.2c.3.3.5.6.6 1 .1.5 0 1-.2 1.5-.3.5-.7.8-1.2.9-.5.1-1 0-1.4-.2-.4-.3-.7-.7-.9-1.2-.1-.5 0-1 .2-1.4.3-.4.7-.7 1.2-.9h1.1l4.5-7.7c.1-.2.3-.2.5-.1s.2.3.1.5l-4.5 7.7v-.1zm6.3-14.3c.5-.1 1 0 1.4.2.5.3.8.7.9 1.2v.1h8.9c.2 0 .4.2.4.4s-.2.4-.4.4h-8.9c0 .2-.1.4-.2.6-.3.5-.7.8-1.2.9-.5.1-1 0-1.5-.2-.9-.5-1.2-1.7-.7-2.6.3-.5.7-.8 1.2-.9l.1-.1zM42 23.5c.4.3.7.7.9 1.2.1.5 0 1-.2 1.4-.3.5-.7.8-1.2.9h-1.1l-4.5 7.7c-.1.2-.3.2-.5.1s-.2-.3-.1-.5l4.5-7.7c-.7-.6-.9-1.6-.4-2.4.3-.4.7-.7 1.2-.9.5-.1 1 0 1.4.2zm-9.4 13.7c.5-.1 1 0 1.5.2.5.3.8.7.9 1.2.1.5 0 1-.2 1.4-.3.5-.7.8-1.2.9-.5.1-1 0-1.4-.2-.5-.3-.8-.7-.9-1.2v-.1h-8.9c-.2 0-.4-.2-.4-.4s.2-.4.4-.4h8.9c0-.2.1-.4.2-.6.3-.5.7-.8 1.2-.9l-.1.1zm-16 0c.5-.1 1 0 1.4.2.4.3.7.7.9 1.2.1.5 0 1-.2 1.4-.3.4-.7.7-1.2.9-.5.1-1 0-1.5-.2-.5-.3-.8-.7-.9-1.2-.1-.5 0-1 .2-1.5.1-.2.2-.4.4-.5l-4.5-7.7c-.1-.2 0-.4.1-.5.2-.1.4 0 .5.1l4.5 7.7h.1l.2.1z" clip-rule="evenodd"/><path stroke="#444" stroke-linecap="round" stroke-linejoin="round" d="M25.1 21.6c1 0 1.9.4 2.5 1 .6.6 1 1.5 1 2.5s-.4 1.9-1 2.5c-.6.6-1.5 1-2.5 1s-1.9-.4-2.5-1c-.6-.6-1-1.5-1-2.5s.4-1.9 1-2.5c.6-.6 1.5-1 2.5-1z" clip-rule="evenodd"/><path stroke="#444" stroke-linecap="round" stroke-linejoin="round" d="M24.1 16c-.2 0-.4 0-.5.2-.1.1-.2.3-.2.5v1.5h-.1c-.3 0-.6.2-.9.3-.3.1-.6.3-.9.4l-1.1-.9c-.2-.1-.3-.2-.5-.2s-.4 0-.5.2l-1.3 1.3c-.1.1-.2.3-.2.5s0 .4.2.5l.9 1.1c-.2.3-.3.6-.4.9l-.3.9h-1.5c-.2.2-.4.2-.5.4-.1.1-.2.3-.2.5V26c0 .2 0 .4.2.5.1.1.3.2.5.2h1.5v.1c0 .3.2.6.3.9.1.3.3.6.4.9l-.9 1.1c-.1.2-.2.3-.2.5s0 .4.2.5l1.3 1.3c.1.1.3.2.5.2s.4 0 .5-.2l1.1-.9c.3.2.6.3.9.4l.9.3v1.5c.2.2.2.4.4.5.1.1.3.2.5.2h1.9c.2 0 .4 0 .5-.2.1-.1.2-.3.2-.5v-1.5h.1c.3 0 .6-.2.9-.3.3-.1.6-.3.9-.4l1.1.9c.2.1.3.2.5.2s.4 0 .5-.2l1.3-1.3c.1-.1.2-.3.2-.5s0-.4-.2-.5l-.9-1.1c.2-.3.3-.6.4-.9l.3-.9h1.5c.2-.2.4-.2.5-.4.1-.1.2-.3.2-.5V24c0-.2 0-.4-.2-.5-.1-.1-.3-.2-.5-.2h-1.5v-.1c0-.3-.2-.6-.3-.9-.1-.3-.3-.6-.4-.9l.9-1.1c.1-.2.2-.3.2-.5s0-.4-.2-.5L30.8 18c-.1-.1-.3-.2-.5-.2s-.4 0-.5.2l-1.1.9c-.3-.2-.6-.3-.9-.4l-.9-.3v-1.5c-.2-.2-.2-.4-.4-.5-.1-.1-.3-.2-.5-.2h-1.9z" clip-rule="evenodd"/><path fill="#9B12EF" d="M2 23.85a1 1 0 01.84-.987l44-7.174a1 1 0 011.16.987v9.474a1 1 0 01-.84.987l-44 7.174A1 1 0 012 33.324V23.85z"/><path fill="#fff" d="M15.157 30.122l-1.05-7.197 2.756-.402c.52-.075.964-.056 1.332.057.37.111.662.295.874.551.214.256.347.562.4.918a1.59 1.59 0 01-.06.777 1.432 1.432 0 01-.38.568c-.17.157-.37.28-.595.37l.01.071c.257-.023.514.02.769.128.257.106.479.277.666.513.188.236.308.537.362.902.054.372.013.72-.124 1.044-.138.322-.375.595-.713.819-.339.224-.783.376-1.334.456l-2.913.425zm1.145-1.28l1.402-.204c.473-.07.801-.209.983-.42a.897.897 0 00.214-.749 1.087 1.087 0 00-.751-.895 1.51 1.51 0 00-.718-.05l-1.437.21.307 2.108zm-.444-3.046l1.29-.188c.224-.033.421-.104.59-.212.168-.11.292-.25.373-.417a.96.96 0 00.078-.571.903.903 0 00-.396-.646c-.22-.152-.523-.2-.907-.144l-1.318.192.29 1.986zm8.151 3.143c-.54.078-1.024.034-1.45-.133a2.309 2.309 0 01-1.044-.831c-.272-.387-.449-.862-.531-1.427-.081-.555-.047-1.057.103-1.508.151-.452.401-.824.749-1.114.347-.292.779-.476 1.294-.55.333-.05.654-.041.965.023.313.063.6.188.86.378.261.189.483.446.664.771.181.323.306.721.375 1.194l.057.39-4.424.645-.125-.857 3.205-.467a1.383 1.383 0 00-.253-.627 1.161 1.161 0 00-.498-.39 1.228 1.228 0 00-.664-.073c-.26.038-.48.135-.658.29-.178.153-.308.34-.388.56a1.43 1.43 0 00-.068.688l.109.748c.046.314.142.575.29.783.147.206.332.354.556.443.223.087.473.11.75.07.185-.027.348-.077.49-.15a1.14 1.14 0 00.357-.293.991.991 0 00.193-.42l1.207-.039a1.87 1.87 0 01-.308.885 2.112 2.112 0 01-.723.658 3.1 3.1 0 01-1.09.353zm5.37-6.403l.143.983-3.103.453-.143-.984 3.102-.452zm-2.526-.953l1.272-.185.739 5.067c.025.17.07.298.135.382a.422.422 0 00.237.152.81.81 0 00.296.007c.08-.011.15-.028.215-.049a1.91 1.91 0 00.15-.054l.36.963a2.414 2.414 0 01-.73.236c-.318.055-.612.05-.883-.019a1.353 1.353 0 01-.68-.41c-.18-.203-.294-.474-.341-.812l-.77-5.278zm5.945 6.077c-.342.05-.659.034-.95-.048a1.523 1.523 0 01-.727-.453c-.192-.219-.314-.505-.365-.859-.045-.304-.026-.564.058-.78a1.32 1.32 0 01.39-.545c.178-.148.383-.27.618-.366.237-.1.485-.182.743-.249.311-.078.564-.145.757-.2.192-.056.329-.12.41-.189.083-.072.115-.168.097-.29l-.003-.021c-.038-.265-.147-.459-.325-.58-.178-.123-.415-.163-.71-.12-.311.046-.549.15-.711.312-.161.162-.26.34-.296.535l-1.212.004c.046-.341.16-.638.344-.89.183-.253.422-.458.718-.614a3.058 3.058 0 011.008-.32c.26-.037.523-.044.79-.021.267.023.517.09.75.2.234.106.432.27.596.49.166.22.275.509.328.867l.526 3.613-1.222.178-.109-.741-.042.006a1.572 1.572 0 01-.265.47c-.12.148-.279.278-.478.388a2.133 2.133 0 01-.718.223zm.194-.983c.256-.037.47-.12.643-.247a1.13 1.13 0 00.372-.471 1.05 1.05 0 00.074-.574l-.092-.636a.608.608 0 01-.19.12 2.88 2.88 0 01-.306.12 9.926 9.926 0 01-.34.107l-.292.086a2.24 2.24 0 00-.492.201.855.855 0 00-.319.298.607.607 0 00-.071.42c.034.234.145.398.334.493.188.094.415.122.68.083z"/></svg>
